Papirus/64x64/apps/ente.svg

<svg width="64" height="64" version="1.1" xmlns="http://www.w3.org/2000/svg">
 <rect x="4" y="5" width="56" height="56" ry="11.048342" style="opacity:.2"/>
 <rect x="4" y="4" width="56" height="56" ry="11.048342" style="fill:#444444"/>
 <path d="m25.95 30.999917h12.206c0-4.497013-3.770562-5.999867-6.103266-6s-6.102734 1.498766-6.102734 6zm-6.95 2.372226c-0.10844-6.794176 5.123322-13.372143 13.052734-13.372143 6.959501 0 11.075741 4.793821 12.366266 9.610126 0.471239 1.758687 0.581 3.582398 0.581 5.389791h-19.05c0.05931 3.646238 3.26848 5.927394 6.102734 6 3.316475 0 5.417489-2.172393 6.103266-3.360194l4.804 3.056194c-0.919761 1.593073-4.680138 5.304-10.907266 5.304-5.933255 0-12.923225-4.513488-13.052734-12.627774z" style="opacity:.2"/>
 <path d="m25.95 30h12.206c0-4.497013-3.770562-5.999867-6.103266-6s-6.102734 1.498766-6.102734 6zm-6.95 2.372226c-0.10844-6.794176 5.123322-13.372143 13.052734-13.372143 6.959501 0 11.075741 4.793821 12.366266 9.610126 0.471239 1.758687 0.581 3.582398 0.581 5.389791h-19.05c0.05931 3.646238 3.26848 5.927394 6.102734 6 3.316475 0 5.417489-2.172393 6.103266-3.360194l4.804 3.056194c-0.919761 1.593073-4.680138 5.304-10.907266 5.304-5.933255 0-12.923225-4.513488-13.052734-12.627774z" style="fill:#e6e6e6"/>
 <path d="m32.052734 19c-7.929412 0-13.161174 6.578871-13.052734 13.373047 0.001444 0.090475 0.00858 0.178 0.011719 0.267578 0.262451-6.526913 5.396769-12.640625 13.041015-12.640625 6.959501 0 11.076663 4.79307 12.367188 9.609375 0.384448 1.43478 0.520597 2.913457 0.560547 4.390625h0.019531c0-1.807393-0.108839-3.631938-0.580078-5.390625-1.290525-4.816305-5.407687-9.609375-12.367188-9.609375zm-6.033203 11c-0.043721 0.316333-0.070312 0.64758-0.070312 1h12.207031c0-0.352089-0.026585-0.683903-0.070312-1h-12.066407zm-0.070312 5c0.05931 3.646238 3.269261 5.927394 6.103515 6 3.316475 0 5.417739-2.171574 6.103516-3.359375l4.320312 2.746094c0.205317-0.256292 0.368494-0.490694 0.484376-0.691407l-4.804688-3.054687c-0.685777 1.187801-2.787041 3.359375-6.103516 3.359375-2.564164-0.065687-5.426319-1.943536-5.99414-5h-0.109375z" style="fill:#ffffff;opacity:.2"/>
 <path d="M 15.048828 4 C 8.9280468 4 4 8.9280468 4 15.048828 L 4 16.048828 C 4 9.9280468 8.9280468 5 15.048828 5 L 48.951172 5 C 55.071953 5 60 9.9280468 60 16.048828 L 60 15.048828 C 60 8.9280468 55.071953 4 48.951172 4 L 15.048828 4 z " style="fill:#ffffff;opacity:.1"/>
</svg>

<svg xmlns="http://www.w3.org/2000/svg" width="64" height="64" version="1.1">
 <rect style="opacity:0.2" width="56" height="56" x="4" y="5" ry="11"/>
 <rect style="fill:#444444" width="56" height="56" x="4" y="4" ry="11"/>
 <path style="fill:#ffffff;opacity:0.1" d="M 15 4 C 8.906 4 4 8.906 4 15 L 4 16 C 4 9.906 8.906 5 15 5 L 49 5 C 55.094 5 60 9.906 60 16 L 60 15 C 60 8.906 55.094 4 49 4 L 15 4 z"/>
 <path style="opacity:0.2" d="M 25.95,31 H 38.156 C 38.156,26.503 34.385,25 32.053,25 29.721,25 25.95,26.499 25.95,31 Z M 19,33.372 C 18.892,26.578 24.123,20 32.053,20 39.013,20 43.129,24.794 44.419,29.61 44.89,31.369 45,33.192 45,35 H 25.95 C 26.009,38.646 29.218,40.927 32.053,41 35.369,41 37.47,38.828 38.156,37.64 L 42.96,40.696 C 42.04,42.289 38.28,46 32.053,46 26.12,46 19.13,41.487 19,33.372 Z"/>
 <path style="fill:#e6e6e6" d="M 25.95,30 H 38.156 C 38.156,25.503 34.385,24 32.053,24 29.721,24 25.95,25.499 25.95,30 Z M 19,32.372 C 18.892,25.578 24.123,19 32.053,19 39.013,19 43.129,23.794 44.419,28.61 44.89,30.369 45,32.192 45,34 H 25.95 C 26.009,37.646 29.218,39.927 32.053,40 35.369,40 37.47,37.828 38.156,36.64 L 42.96,39.696 C 42.04,41.289 38.28,45 32.053,45 26.12,45 19.13,40.487 19,32.372 Z"/>
 <path style="opacity:0.2;fill:#ffffff" d="M 32.053,19 C 24.123,19 18.892,25.577 19,32.371 19.001,32.462 19.009,32.551 19.012,32.641 19.275,26.114 24.408,20 32.053,20 39.013,20 43.13,24.793 44.42,29.609 44.804,31.044 44.94,32.523 44.98,34 H 45 C 45,32.192 44.891,30.368 44.42,28.609 43.13,23.793 39.013,19 32.053,19 Z M 26.02,30 C 25.976,30.316 25.949,30.648 25.949,31 H 38.156 C 38.156,30.648 38.13,30.316 38.086,30 Z M 25.949,35 C 26.008,38.646 29.218,40.927 32.053,41 35.369,41 37.47,38.829 38.156,37.641 L 42.477,40.387 C 42.682,40.13 42.845,39.896 42.961,39.695 L 38.156,36.641 C 37.47,37.829 35.369,40 32.053,40 29.488,39.934 26.626,38.056 26.059,35 Z"/>
</svg>
